X:10
T:scan tester-will duke no.9
Q:1/4=190
I:abc2nwc
M:4/4
L:1/8
K:G
D2G2B3A|G2E2EF GE|D2G2GF GA|B2A2A4||
D2G2B3A|G2E2E4|D3D E2F2|A2G2G4:|
|:B2d2d3c|Bc d2d3c|B2d2G3A|B2A2A2||
dc|B2d2d3c|Bc d2d4|e4F3A|[1A2G2G2dc:|[2A2G2G2
|:Bc|d4d3e|d2B2B4|c2B2A2G2|B2A2A2||
Bc|d4d3e|d2B2B4|c2B2A2F2|A2G2G2:|


